!!!COM:	de Orto, Marbrianus
!!!CDT:	~1460///-1529//
!!!OPR:	Missa La belle se siet
!!!ONM:	4
!!!OTL:	Sanctus
!!!AGN:	Mass; Sanctus
!!!SCT:	Ort1003d
!!!SCA:	Ort1003d
!!!voices-OPR:	4
!!!voices:	4
**kern	**text	**kern	**text	**kern	**text	**kern	**text
*staff4	*staff4	*staff3	*staff3	*staff2	*staff2	*staff1	*staff1
*Ivox	*	*Ivox	*	*Ivox	*	*Ivox	*
*I"Bassus	*	*I"Tenor	*	*I"Altus	*	*I"Superius	*
*I'B	*	*I'T	*	*I'A	*	*I'S	*
*>[A,B,C,D,C]	*>[A,B,C,D,C]	*>[A,B,C,D,C]	*>[A,B,C,D,C]	*>[A,B,C,D,C]	*>[A,B,C,D,C]	*>[A,B,C,D,C]	*>[A,B,C,D,C]
*>A	*>A	*>A	*>A	*>A	*>A	*>A	*>A
*clefF4	*	*clefGv2	*	*clefGv2	*	*clefG2	*
*k[b-]	*	*k[b-]	*	*k[b-]	*	*k[b-]	*
*M3/1	*	*M3/1	*	*M3/1	*	*M3/1	*
*met(O)	*	*met(O)	*	*met(O)	*	*met(O)	*
!!section: Sanctus
!!!OMD: Sanctus
=1-	=1-	=1-	=1-	=1-	=1-	=1-	=1-
0.r	.	0.r	.	1F	Sanc-	0f	Sanc-
.	.	.	.	2.F/	-tus,	.	.
.	.	.	.	4G/	.	.	.
.	.	.	.	2A/	.	1f	-tus,
.	.	.	.	[2B-\	Sanc-	.	.
=2	=2	=2	=2	=2	=2	=2	=2
0.r	.	0.r	.	2B-\]	.	1g	San-
.	.	.	.	2.c\	.	.	.
.	.	.	.	.	.	0a	.
.	.	.	.	4B-\	.	.	.
.	.	.	.	4A/	.	.	.
.	.	.	.	4G/	.	.	.
.	.	.	.	2F/	.	.	.
.	.	.	.	2c\	.	.	.
=3	=3	=3	=3	=3	=3	=3	=3
0.r	.	0.r	.	2d\	.	1a	-ctus,
.	.	.	.	1c	.	.	.
.	.	.	.	.	.	1cc	.
.	.	.	.	2.f\	.	.	.
.	.	.	.	.	.	2.cc\	San-
.	.	.	.	4e\	.	.	.
.	.	.	.	[2c\	.	.	.
.	.	.	.	.	.	4b-\	.
=4	=4	=4	=4	=4	=4	=4	=4
0.r	.	0.r	.	4c\]	.	2.g/	.
.	.	.	.	4d\	.	.	.
.	.	.	.	2e-i\	.	.	.
.	.	.	.	.	.	4a/	.
.	.	.	.	2d\	.	2b-\	.
.	.	.	.	2.c\	.	1a	.
.	.	.	.	4B-\	.	.	.
.	.	.	.	2G/	.	[2g/	.
=5	=5	=5	=5	=5	=5	=5	=5
0.r	.	0.r	.	1A	.	2g/]	.
.	.	.	.	.	.	2f/	.
.	.	.	.	2G/	.	2.b-\	.
.	.	.	.	2.B-\	.	.	.
.	.	.	.	.	.	4a/	.
.	.	.	.	.	.	2f/	.
.	.	.	.	4A/	.	.	.
.	.	.	.	4G/	.	[2g/	.
.	.	.	.	4F/	.	.	.
=6	=6	=6	=6	=6	=6	=6	=6
0.r	.	0.r	.	2E/	.	4g/]	.
.	.	.	.	.	.	4f/	.
.	.	.	.	1F	.	2d/	.
.	.	.	.	.	.	2c/	.
.	.	.	.	2A/	.	1f	.
.	.	.	.	1G	.	.	.
.	.	.	.	.	.	2e/	.
=7	=7	=7	=7	=7	=7	=7	=7
0F	Sanc-	[0.F	Sanc-	1F	-tus,	1f	-tus,
.	.	.	.	1c	Sanc-	1r	.
1D	.	.	.	2d\	.	1a	Sanc-
.	.	.	.	[2f\	.	.	.
=8	=8	=8	=8	=8	=8	=8	=8
1BB-	.	0.F]	.	4f\]	.	1b-	.
.	.	.	.	4e\	.	.	.
.	.	.	.	2d\	.	.	.
2AA/	.	.	.	2c\	.	2cc\	.
2BB-/	.	.	.	2.d\	.	2b-\	.
1D	.	.	.	.	.	2a/	.
.	.	.	.	4c\	.	.	.
.	.	.	.	2A/	.	4g/	.
.	.	.	.	.	.	4f/	.
=9	=9	=9	=9	=9	=9	=9	=9
2C/	.	0G	-tus,	2c\	.	2e/	.
2BB-/	.	.	.	2d\	.	1d	.
1GG	.	.	.	1D	-tus,	.	.
.	.	.	.	.	.	2.g/	.
1C	.	1G	San-	1r	.	.	.
.	.	.	.	.	.	4f/	.
.	.	.	.	.	.	4e/	.
.	.	.	.	.	.	4d/	.
=10	=10	=10	=10	=10	=10	=10	=10
1AA	-tus,	[0.A	.	1E	Sanc-	1c	-tus,
2D\	Sanc-	.	.	2F/	.	2r	.
2C/	.	.	.	2E/	.	2e/	Sanc-
1D	.	.	.	2D/	.	2f/	.
.	.	.	.	2F/	.	2d/	.
=11	=11	=11	=11	=11	=11	=11	=11
1AA	-tus,	0.A]	.	1E	-ctus,	2c/	-tus,
.	.	.	.	.	.	2.cc\	Sanc-
2FF/	Sanc-	.	.	2.F/	San-	.	.
.	.	.	.	.	.	4b-\	.
2.F\	.	.	.	.	.	4a/	.
.	.	.	.	4E/	.	4g/	.
.	.	.	.	2D/	.	2f/	.
4E\	.	.	.	.	.	.	.
2D\	.	.	.	2F/	.	[2a/	.
=12	=12	=12	=12	=12	=12	=12	=12
2AA/	.	0c	.	2E/	.	4a/]	.
.	.	.	.	.	.	4g/	.
2.F\	.	.	.	2.A/	.	2f/	.
.	.	.	.	.	.	4c/	.
4E\	.	.	.	4G/	.	4d/	.
2C/	.	.	.	2E/	.	4e/	.
.	.	.	.	.	.	4f/	.
2E\	.	1c	-ctus,	1c	-ctus,	2g/	.
2F\	.	.	.	.	.	2a/	.
=13	=13	=13	=13	=13	=13	=13	=13
1G	-tus,	[0.B-	San-	2r	.	1d	-tus,
.	.	.	.	1G	Sanc-	.	.
0E-	Sanc-	.	.	.	.	1r	.
.	.	.	.	2G/	-tus,	.	.
.	.	.	.	1G	Sanc-	1r	.
=14	=14	=14	=14	=14	=14	=14	=14
2BB-/	.	0.B-]	.	2F/	.	2d/	Sanc-
2E-i\	.	.	.	2G/	.	2g/	.
2D\	.	.	.	0d	.	2f/	.
2GG/	.	.	.	.	.	1g	.
2.G\	.	.	.	.	.	.	.
.	.	.	.	.	.	[2b-\	.
4F\	.	.	.	.	.	.	.
=15	=15	=15	=15	=15	=15	=15	=15
4E-i\	.	0G	.	1e-	.	2b-\]	.
4D\	.	.	.	.	.	.	.
2C/	.	.	.	.	.	2cc\	.
2GG/	.	.	.	2d\	.	2b-\	.
2C/	.	.	.	2e-\	.	2.cc\	.
1E-i	.	1G	-ctus,	1c	.	.	.
.	.	.	.	.	.	4b-\	.
.	.	.	.	.	.	4a/	.
.	.	.	.	.	.	4g/	.
=16	=16	=16	=16	=16	=16	=16	=16
2D\	.	1.A	San-	1d	-tus,	1f	-tus,
2.F\	.	.	.	.	.	.	.
.	.	.	.	2r	.	1r	.
4E-i\	.	.	.	.	.	.	.
2C/	.	1G	.	1c	San-	.	.
1D	-tus,	.	.	.	.	1r	.
.	.	2F/	.	[2B-\	.	.	.
=17	=17	=17	=17	=17	=17	=17	=17
2r	.	1.G	.	2B-\]	.	0.r	.
1E-	Sanc-	.	.	1c	.	.	.
2D\	.	2F/	.	2B-\	.	.	.
1C	.	2G/	.	1c	.	.	.
.	.	2A/	.	.	.	.	.
=18	=18	=18	=18	=18	=18	=18	=18
1BB-	-tus,	1B-	.	1F	-ctus,	1d	San-
1r	.	2c\	.	1r	.	2e/	.
.	.	2.B-\	.	.	.	2f/	.
1r	.	.	.	2.d\	San-	1g	.
.	.	4A/	.	.	.	.	.
.	.	2G/	.	.	.	.	.
.	.	.	.	4e\	.	.	.
=19	=19	=19	=19	=19	=19	=19	=19
2.D\	Sanc-	1F	-tus,	1f	.	2.a/	.
4C/	.	.	.	.	.	4b-\	.
2AA/	.	2r	.	2e\	.	2cc\	.
2BB-/	.	2F/	Sanc-	1d	.	1b-	.
1E-i	-tus,	1G	.	.	.	.	.
.	.	.	.	[2c\	.	4a/	.
.	.	.	.	.	.	4g/	.
=20	=20	=20	=20	=20	=20	=20	=20
2r	.	2A/	.	2c\]	.	2f/	.
1E-i	Sanc-	2B-\	.	1e-i	.	1g	.
.	.	2c\	.	.	.	.	.
2D\	.	2F/	.	2B-\	.	1f	.
1C	-tus,	1G	.	1c	.	.	.
.	.	.	.	.	.	2e/	.
=21	=21	=21	=21	=21	=21	=21	=21
1r	.	1F	-tus,	2A/	-ctus,	1f	-ctus,
.	.	.	.	1c	San-	.	.
2.F\	Sanc-	1r	.	.	.	1r	.
.	.	.	.	2d\	.	.	.
4D\	.	.	.	.	.	.	.
2Eni\	.	1c	Sanc-	2G/	.	1r	.
2F\	.	.	.	[2A/	.	.	.
=22	=22	=22	=22	=22	=22	=22	=22
2D\	.	1d	.	2A/]	.	0f	Sanc-
2BB-/	.	.	.	2B-\	.	.	.
1F	.	2c\	.	2A/	.	.	.
.	.	2A/	.	2c\	.	.	.
2BB-/	.	1B-	-tus,	2d\	.	1f	-tus,
2D\	.	.	.	2B-\	.	.	.
=23	=23	=23	=23	=23	=23	=23	=23
2C/	.	2r	.	2c\	.	1.g	San-
2GG/	-tus,	2d\	Do-	2B-\	.	.	.
1r	.	2c\	.	1c	-ctus,	.	.
.	.	2A/	-mi-	.	.	1a	.
1G	Do-	1B-	-nus	1d	Do-	.	.
.	.	.	.	.	.	2g/	.
=24	=24	=24	=24	=24	=24	=24	=24
4F\	.	2r	.	2A/	.	1a	-ctus,
4E\	.	.	.	.	.	.	.
4D\	.	2A/	De-	2d\	.	.	.
4C/	.	.	.	.	.	.	.
2BB-/	.	1B-	-us	2D/	.	2r	.
2E-i\	.	.	.	2G/	.	2g/	Do-
2D\	.	2r	.	2F/	.	2a/	.
2GG/	-mi-	2d\	Do-	2G/	.	2b-\	.
=25	=25	=25	=25	=25	=25	=25	=25
1AA	-nus	2c\	.	2C/	.	2.cc\	.
.	.	2A/	-mi-	2c\	-mi-	.	.
.	.	.	.	.	.	4b-\	.
1r	.	1B-	-nus	0d	-nus	1g	.
1D	De-	2r	.	.	.	1a	-mi-
.	.	2A/	De-	.	.	.	.
=26	=26	=26	=26	=26	=26	=26	=26
1G	.	1B-	.	2.d\	De-	1g	-nus
.	.	.	.	4B-\	.	.	.
2F\	.	1A	-us	2c\	.	2r	.
2D\	.	.	.	2d\	.	2f/	De-
2.E-i\	.	1r	.	2B-\	.	2.g/	.
.	.	.	.	2G/	.	.	.
4D\	.	.	.	.	.	4a/	.
=27	=27	=27	=27	=27	=27	=27	=27
1BB-	-us	1d	Do-	2F/	.	1b-	.
.	.	.	.	2D/	-us	.	.
1r	.	2c\	.	1r	.	2a/	.
.	.	2d\	.	.	.	1b-	.
1GG	Sa-	1B-	-mi-	[1d	Sa-	.	.
.	.	.	.	.	.	4a/	.
.	.	.	.	.	.	4g/	.
=28	=28	=28	=28	=28	=28	=28	=28
2.D\	.	2A/	-nus	2d\]	.	1f	-us
.	.	2d\	De-	2.A/	.	.	.
4C/	.	.	.	.	.	.	.
2AA/	.	2c\	.	.	.	2r	.
.	.	.	.	4G/	.	.	.
2D\	.	2A/	.	4F/	.	1f	De-
.	.	.	.	4E/	.	.	.
2BB-/	.	1B-	.	2D/	.	.	.
2E-i\	.	.	.	2G/	.	2g/	.
=29	=29	=29	=29	=29	=29	=29	=29
2.F\	.	2A/	-us	2D/	.	1a	-us
.	.	2.c\	Sa-	2A/	.	.	.
4E-i\	.	.	.	.	.	.	.
2C/	.	.	.	2G/	.	2r	.
.	.	4B-\	.	.	.	.	.
2D\	.	2A/	.	4D/	.	2f/	Sa-
.	.	.	.	2d\	.	.	.
2E-i\	.	2G/	-ba-	.	.	2g/	.
.	.	.	.	4c\	-ba-	.	.
2D\	-ba-	2F/	-oth,	2d\	-oth,	2a/	.
=30	=30	=30	=30	=30	=30	=30	=30
1GG	-oth,	2r	.	2r	.	1.b-	.
.	.	1G	Sa-	2d\	Sa-	.	.
2r	.	.	.	2e-i\	.	.	.
2GG/	Sa-	2B-\	.	1d	.	4a/	.
.	.	.	.	.	.	4g/	.
2D\	.	2A/	.	.	.	2f/	.
2E-\	.	2G/	.	2B-\	.	2g/	.
=31	=31	=31	=31	=31	=31	=31	=31
2D\	.	2F/	.	2d\	.	2a/	.
2E-i\	.	2G/	.	2B-\	.	2.g/	.
2D\	.	2A/	.	1d	-ba-	.	.
.	.	.	.	.	.	4f/	.
2BB-/	.	2B-\	.	.	.	1f	.
1C	-ba-	1G	-ba-	[1c;l	-oth.	.	.
.	.	.	.	.	.	2e/	-ba-
=32	=32	=32	=32	=32	=32	=32	=32
0.FFl	-oth.	0.Fl	-oth.	0.c]	.	0.fl	-oth.
!!LO:LB:i:g=z
=33||	=33||	=33||	=33||	=33||	=33||	=33||	=33||
*>B	*>B	*>B	*>B	*>B	*>B	*>B	*>B
*clefF4	*	*clefGv2	*	*clefGv2	*	*clefG2	*
*k[b-]	*	*k[b-]	*	*k[b-]	*	*k[b-]	*
*M2/1	*	*M2/1	*	*M2/1	*	*M2/1	*
*met(C|)	*	*met(C|)	*	*met(C|)	*	*met(C|)	*
!!section: Pleni sunt celi
!!!OMD: Pleni sunt celi
0F	Ple-	0r	.	1c	Ple-	0r	.
.	.	.	.	2d\	.	.	.
.	.	.	.	2c\	.	.	.
=34	=34	=34	=34	=34	=34	=34	=34
1G	.	0r	.	1B-	.	0r	.
1F	.	.	.	1A	-ni	.	.
=35	=35	=35	=35	=35	=35	=35	=35
0E	.	0r	.	0c	sunt	0r	.
=36	=36	=36	=36	=36	=36	=36	=36
0D	-ni	0r	.	1.d	cae-	0r	.
.	.	.	.	2c\	.	.	.
=37	=37	=37	=37	=37	=37	=37	=37
0r	.	0r	.	0B-	.	0g	Ple-
=38	=38	=38	=38	=38	=38	=38	=38
1r	.	0c	Ple-	1A	-li	1a	.
1E	sunt	.	.	1r	.	1g	.
=39	=39	=39	=39	=39	=39	=39	=39
1D	.	1d	.	0A	Ple-	1f	.
2AA/	cae-	1c	.	.	.	1e	-ni
[2A\	.	.	.	.	.	.	.
=40	=40	=40	=40	=40	=40	=40	=40
2A\]	.	0B-	.	1d	.	0r	.
4G\	.	.	.	.	.	.	.
4F\	.	.	.	.	.	.	.
1G	.	.	.	1d	-ni	.	.
=41	=41	=41	=41	=41	=41	=41	=41
2.A\	.	0A	-ni	2c\	sunt	0cc	sunt
.	.	.	.	2.F/	cae-	.	.
4G\	.	.	.	.	.	.	.
1F	.	.	.	.	.	.	.
.	.	.	.	4G/	.	.	.
.	.	.	.	[2A/	.	.	.
=42	=42	=42	=42	=42	=42	=42	=42
1BB-	.	0r	.	2A/]	.	1dd	.
.	.	.	.	2G/	.	.	.
1AA	-li	.	.	1A	.	1cc	.
=43	=43	=43	=43	=43	=43	=43	=43
0r	.	1.d	sunt	1G	.	1b-	.
.	.	.	.	1F	-li	2r	.
.	.	2c\	.	.	.	[2a/	cae-
=44	=44	=44	=44	=44	=44	=44	=44
1r	.	1B-	.	0r	.	2a/]	.
.	.	.	.	.	.	2g/	.
1D	cae-	1A	.	.	.	1f	.
=45	=45	=45	=45	=45	=45	=45	=45
1C	.	1c	cae-	0G	et	1e	-li
1BB-	.	1d	.	.	.	1r	.
=46	=46	=46	=46	=46	=46	=46	=46
1AA	-li	1c	.	2E/	ter-	0r	.
.	.	.	.	1A	.	.	.
1r	.	1B-	.	.	.	.	.
.	.	.	.	2G/	.	.	.
=47	=47	=47	=47	=47	=47	=47	=47
0r	.	1A	-li	1A	.	2r	.
.	.	.	.	.	.	2.e/	et
.	.	1r	.	1c	.	.	.
.	.	.	.	.	.	4f/	.
.	.	.	.	.	.	4g/	.
.	.	.	.	.	.	4a/	.
=48	=48	=48	=48	=48	=48	=48	=48
0r	.	0r	.	1d	.	2b-\	ter-
.	.	.	.	.	.	1a	.
.	.	.	.	1c	-ra	.	.
.	.	.	.	.	.	[2cc\	.
=49	=49	=49	=49	=49	=49	=49	=49
0r	.	0r	.	2r	.	2cc\]	.
.	.	.	.	2B-\	ter-	2dd\	.
.	.	.	.	2A/	.	2cc\	.
.	.	.	.	2G/	.	[2b-\	.
=50	=50	=50	=50	=50	=50	=50	=50
0r	.	0r	.	1d	.	2b-\]	.
.	.	.	.	.	.	2.a/	.
.	.	.	.	2.c\	.	.	.
.	.	.	.	.	.	4b-\	.
.	.	.	.	.	.	4cc\	.
.	.	.	.	4B-\	.	4dd\	.
=51	=51	=51	=51	=51	=51	=51	=51
0r	.	0r	.	2.d\	.	2b-\	.
.	.	.	.	.	.	2a/	.
.	.	.	.	4c\	.	.	.
.	.	.	.	2A/	.	2cc\	.
.	.	.	.	[2d\	.	[2b-\	.
=52	=52	=52	=52	=52	=52	=52	=52
0r	.	0r	.	4d\]	.	4b-\]	.
.	.	.	.	4c\	.	4a/	.
.	.	.	.	2B-\	.	2dd\	.
.	.	.	.	2A/	-ra	2cc\	.
.	.	.	.	[2d\	ter-	[2b-\	.
=53	=53	=53	=53	=53	=53	=53	=53
0r	.	0r	.	2d\]	.	4b-\]	.
.	.	.	.	.	.	4a/	.
.	.	.	.	2c\	.	1a	.
.	.	.	.	1B-	.	.	.
.	.	.	.	.	.	2g/	.
=54	=54	=54	=54	=54	=54	=54	=54
1D	et	1r	.	1A	-ra	1a	-ra
2C/	ter-	1c	et	1r	.	1r	.
2AA/	.	.	.	.	.	.	.
=55	=55	=55	=55	=55	=55	=55	=55
1BB-	.	1d	ter-	0r	.	0r	.
2AA/	.	1c	.	.	.	.	.
[2A\	.	.	.	.	.	.	.
=56	=56	=56	=56	=56	=56	=56	=56
2A\]	.	1B-	.	0r	.	0r	.
2G\	.	.	.	.	.	.	.
1F	.	1A	-ra	.	.	.	.
=57	=57	=57	=57	=57	=57	=57	=57
1E	-ra	1c	ter-	0r	.	0r	.
2r	.	2d\	.	.	.	.	.
[2A\	et	2c\	.	.	.	.	.
=58	=58	=58	=58	=58	=58	=58	=58
2A\]	.	1B-	.	0r	.	0r	.
2G\	.	.	.	.	.	.	.
2A\	ter-	2A/	.	.	.	.	.
[2D\	.	[2B-\	.	.	.	.	.
=59	=59	=59	=59	=59	=59	=59	=59
2D\]	.	4B-\]	.	0r	.	0r	.
.	.	4A/	.	.	.	.	.
2C/	.	2A/	.	.	.	.	.
1BB-	.	1d	.	.	.	.	.
=60	=60	=60	=60	=60	=60	=60	=60
2AA/	.	2c\	.	0r	.	0r	.
2.D\	.	2.B-\	.	.	.	.	.
4C/	.	4A/	.	.	.	.	.
2AA/	.	2c\	.	.	.	.	.
=61	=61	=61	=61	=61	=61	=61	=61
2GG/	.	2B-\	.	0r	.	0r	.
2AA/	.	1A	.	.	.	.	.
1BB-	.	.	.	.	.	.	.
.	.	2G/	.	.	.	.	.
=62	=62	=62	=62	=62	=62	=62	=62
0AA	-ra	0A	-ra	1E	glo-	0cc	glo-
.	.	.	.	1F	.	.	.
=63	=63	=63	=63	=63	=63	=63	=63
0r	.	0r	.	2G/	.	1b-	.
.	.	.	.	2B-\	.	.	.
.	.	.	.	2c\	.	1a	.
.	.	.	.	2d\	.	.	.
=64	=64	=64	=64	=64	=64	=64	=64
0r	.	0r	.	2e\	.	2g/	.
.	.	.	.	1f	.	2f/	.
.	.	.	.	.	.	1g	-ri-
.	.	.	.	2e\	-ri-	.	.
=65	=65	=65	=65	=65	=65	=65	=65
1r	.	2r	.	1f	-a	1f	-a
.	.	4F/	glo-	.	.	.	.
.	.	4G/	.	.	.	.	.
1FF	glo-	4A/	.	1r	.	1r	.
.	.	4B-\	.	.	.	.	.
.	.	2c\	.	.	.	.	.
=66	=66	=66	=66	=66	=66	=66	=66
4GG/	.	1B-	.	0r	.	0r	.
4AA/	.	.	.	.	.	.	.
4BB-/	.	.	.	.	.	.	.
4C/	.	.	.	.	.	.	.
4D\	.	1A	.	.	.	.	.
4E\	.	.	.	.	.	.	.
[2F\	.	.	.	.	.	.	.
=67	=67	=67	=67	=67	=67	=67	=67
2F\]	.	0G	-ri-	0r	.	0r	.
4E\	.	.	.	.	.	.	.
4D\	.	.	.	.	.	.	.
1E	-ri-	.	.	.	.	.	.
=68	=68	=68	=68	=68	=68	=68	=68
1F	-a	1F	-a	4c\	glo-	2.cc\	glo-
.	.	.	.	4B-\	.	.	.
.	.	.	.	4A/	.	.	.
.	.	.	.	4G/	.	4b-\	.
1r	.	1c	tu-	2F/	.	2a/	.
.	.	.	.	2C/	-ri-	[2g/	.
=69	=69	=69	=69	=69	=69	=69	=69
1r	.	2B-\	.	1D	-a	2g/]	.
.	.	2A/	.	.	.	1f	.
2.C/	glo-	1G	-a,	2r	.	.	.
.	.	.	.	[2c\	tu-	2e/	-ri-
4BB-/	.	.	.	.	.	.	.
=70	=70	=70	=70	=70	=70	=70	=70
4AA/	-ri-	2r	.	4c\]	.	1f	-a
4GG/	.	.	.	4B-\	.	.	.
2FF/	-a	2.c\	glo-	4A/	.	.	.
.	.	.	.	4G/	.	.	.
2.F\	tu-	.	.	2A/	.	2c/	tu-
.	.	4B-\	.	.	.	.	.
.	.	4A/	.	2c\	.	[2f/	.
4E\	.	4G/	.	.	.	.	.
=71	=71	=71	=71	=71	=71	=71	=71
4D\	.	2F/	.	1d	-a,	4f/]	.
4C/	.	.	.	.	.	4e/	.
2BB-/	-a,	2.B-\	.	.	.	2d/	.
1r	.	.	.	1r	.	4f/	.
.	.	4G/	.	.	.	4e/	.
.	.	[2c\	.	.	.	4d/	.
.	.	.	.	.	.	4c/	.
=72	=72	=72	=72	=72	=72	=72	=72
1GG	glo-	2c\]	.	1r	.	1d	.
.	.	2Bni\	-ri-	.	.	.	.
2AA/	-ri-	2c\	-a	2A/	glo-	2c/	.
2FF/	-a	2A/	tu-	[2c\	.	2f/	.
=73	=73	=73	=73	=73	=73	=73	=73
2.C/	tu-	4G/	.	1.c]	.	4e/	.
.	.	4F/	.	.	.	4d/	.
.	.	4E/	.	.	.	1g	.
4D\	.	4D/	.	.	.	.	.
2E\	.	2C/	.	.	.	.	.
2F\	-a,	2c\	.	2A/	-ri-	2a/	.
=74	=74	=74	=74	=74	=74	=74	=74
1r	.	2B-\	.	2d\	-a	2g/	.
.	.	2A/	.	2.c\	tu-	1f	-a,
2.C/	tu-	1G	.	.	.	.	.
.	.	.	.	4d\	.	.	.
.	.	.	.	2e\	.	[2cc\	tu-
4BB-/	.	.	.	.	.	.	.
=75	=75	=75	=75	=75	=75	=75	=75
4AA/	.	2F/	-a,	2.f\	.	4cc\]	.
4GG/	.	.	.	.	.	4b-\	.
2FF/	-a,	2c\	glo-	.	.	2a/	.
.	.	.	.	4e\	.	.	.
2r	.	2B-\	-ri-	2d\	.	2g/	.
2FF/	tu-	2A/	-a	[2c\	.	2f/	.
=76	=76	=76	=76	=76	=76	=76	=76
2C/	.	2G/	tu-	2c\]	.	2e/	.
2D\	.	2F/	.	2B-\	.	1f	.
1C	.	1G	.	[1cl	-a.	.	.
.	.	.	.	.	.	2e/	.
=77	=77	=77	=77	=77	=77	=77	=77
0FFl	-a.	0Fl	-a.	0c]	.	0fl	-a.
!!LO:LB:i:g=z
=78||	=78||	=78||	=78||	=78||	=78||	=78||	=78||
*>C	*>C	*>C	*>C	*>C	*>C	*>C	*>C
*clefF4	*	*clefGv2	*	*clefGv2	*	*clefG2	*
*k[b-]	*	*k[b-]	*	*k[b-]	*	*k[b-]	*
*M3/1	*	*M3/1	*	*M3/1	*	*M3/1	*
*met(C|3)	*	*met(C|3)	*	*met(C|3)	*	*met(C|3)	*
!!section: Osanna
!!!OMD: Osanna
0D	O-	0.F	O-	0.r	.	1.a	O-
.	.	.	.	.	.	2g/	.
1D	-san-	.	.	.	.	1f	.
=79	=79	=79	=79	=79	=79	=79	=79
1C	-na,	0.G	.	0.r	.	1e	-san-
0BB-	o-	.	.	.	.	0d	.
=80	=80	=80	=80	=80	=80	=80	=80
1.AA	-san-	[0.A	.	2A/	O-	1c	-na,
.	.	.	.	2B-\	.	.	.
.	.	.	.	2c\	.	1r	.
2BB-/	.	.	.	2d\	.	.	.
1C	.	.	.	1e	.	1r	.
=81	=81	=81	=81	=81	=81	=81	=81
1.D	.	0.A]	.	1.d	-san-	1.f	o-
2C/	.	.	.	2e\	.	2e/	.
1D	.	.	.	1f	.	1d	.
=82	=82	=82	=82	=82	=82	=82	=82
1AA	.	[0.A	-san-	1e	.	1c	-san-
1D	.	.	.	1d	.	1f	.
1AA	.	.	.	[1c	.	1e	.
=83	=83	=83	=83	=83	=83	=83	=83
0F	-na,	0.A]	.	2c\]	.	1c	-na,
.	.	.	.	2B-\	.	.	.
.	.	.	.	2A/	.	1.cc	o-
.	.	.	.	2G/	.	.	.
1F	o-	.	.	1F	-na,	.	.
.	.	.	.	.	.	2b-\	.
=84	=84	=84	=84	=84	=84	=84	=84
0F	-san-	0c	.	1.f	o-	2a/	.
.	.	.	.	.	.	2g/	.
.	.	.	.	.	.	1.a	-san-
.	.	.	.	2e\	.	.	.
1G	.	1B-	.	1d	.	.	.
.	.	.	.	.	.	2g/	.
=85	=85	=85	=85	=85	=85	=85	=85
1E	.	1G	.	1c	-san-	0g	.
0D	-na,	0A	.	0d	.	.	.
.	.	.	.	.	.	1f#i	.
=86	=86	=86	=86	=86	=86	=86	=86
1r	.	1G	-na,	1B-	.	0.g	-na,
1C	o-	1r	.	1.c	.	.	.
[1E-	-san-	1r	.	.	.	.	.
.	.	.	.	2B-\	.	.	.
=87	=87	=87	=87	=87	=87	=87	=87
2E-\]	.	0.r	.	2G/	.	0b-	o-
2D\	.	.	.	2A/	.	.	.
1.BB-	.	.	.	2B-\	.	.	.
.	.	.	.	2c\	.	.	.
.	.	.	.	[1d	.	2a/	.
2C/	.	.	.	.	.	2g/	.
=88	=88	=88	=88	=88	=88	=88	=88
2D\	.	0.r	.	2d\]	.	1.f	-san-
2Eni\	.	.	.	2c\	.	.	.
0F	-na,	.	.	2A/	.	.	.
.	.	.	.	2B-\	.	2g/	.
.	.	.	.	1c	.	1a	.
=89	=89	=89	=89	=89	=89	=89	=89
1BB-	o-	0.r	.	1d	.	1b-	.
0C	.	.	.	0e	.	0g	-na,
=90	=90	=90	=90	=90	=90	=90	=90
1.BB-	-san-	0B-	o-	1.f	.	1.d	o-
2C/	.	.	.	2e\	.	2e/	.
1D	.	1B-	-san-	1d	.	1f	.
=91	=91	=91	=91	=91	=91	=91	=91
2GG/	.	0B-	-na,	1d	-na,	1g	-san-
2AA/	.	.	.	.	.	.	.
2BB-/	.	.	.	1r	.	2d/	.
2C/	.	.	.	.	.	2e/	.
2D\	.	2A/	o-	1r	.	2f/	.
2E\	.	2G/	.	.	.	2g/	.
=92	=92	=92	=92	=92	=92	=92	=92
1.F	.	1.F	-san-	1.A	o-	2a/	.
.	.	.	.	.	.	2b-\	.
.	.	.	.	.	.	0cc	.
2E\	.	2G/	.	2B-\	.	.	.
1C	.	1A	.	1c	.	.	.
=93	=93	=93	=93	=93	=93	=93	=93
1BB-	.	1B-	.	1d	-san-	1.f	.
0C	-na,	0G	.	0c	.	.	.
.	.	.	.	.	.	2e/	.
.	.	.	.	.	.	2e/	.
.	.	.	.	.	.	2d/	.
=94	=94	=94	=94	=94	=94	=94	=94
1.FF	o-	1F	-na,	1.A	.	0f	-na,
.	.	1r	.	.	.	.	.
2GG/	.	.	.	2B-\	.	.	.
1AA	.	1C	o-	1c	.	1r	.
=95	=95	=95	=95	=95	=95	=95	=95
1BB-	-san-	2D/	-san-	1.F	.	0.f	o-
.	.	2E/	.	.	.	.	.
0D	.	2F/	.	.	.	.	.
.	.	2G/	.	2D/	.	.	.
.	.	2A/	.	1d	.	.	.
.	.	2B-\	.	.	.	.	.
=96	=96	=96	=96	=96	=96	=96	=96
1C	.	1.c	.	1.e-i	.	0.g	-san-
0E-i	.	.	.	.	.	.	.
.	.	2B-\	.	2d\	.	.	.
.	.	1G	.	2B-\	.	.	.
.	.	.	.	2c\	.	.	.
=97	=97	=97	=97	=97	=97	=97	=97
1D	.	1F	.	0d	.	[0.a	-na,
0AA	-na,	0E	.	.	.	.	.
.	.	.	.	1c	.	.	.
=98	=98	=98	=98	=98	=98	=98	=98
1r	.	1D	-na,	1d	-na,	0.a]	.
1D	o-	1F	o-	1A	o-	.	.
1AA	.	1E	.	1c	.	.	.
=99	=99	=99	=99	=99	=99	=99	=99
1.D	-san-	1.F	-san-	1A	-san-	[0.a	in
.	.	.	.	1d	.	.	.
2E\	.	2G/	.	.	.	.	.
1F	.	2A/	.	2c\	.	.	.
.	.	2D/	.	2d\	.	.	.
=100	=100	=100	=100	=100	=100	=100	=100
1D	.	1d	.	1.f	.	0.a]	.
1F	-na,	1.c	.	.	.	.	.
.	.	.	.	2e\	.	.	.
1r	.	.	.	[1c	.	.	.
.	.	2B-\	.	.	.	.	.
=101	=101	=101	=101	=101	=101	=101	=101
0.r	.	2A/	.	2c\]	.	0cc	.
.	.	2G/	.	2B-\	.	.	.
.	.	2F/	.	2A/	.	.	.
.	.	2E/	.	2G/	.	.	.
.	.	1D	-na,	[1d	.	1b-	ex-
=102	=102	=102	=102	=102	=102	=102	=102
0.r	.	0G	in	1d]	.	1g	-cel-
.	.	.	.	0D	-na,	0a	.
.	.	1F#i	ex-	.	.	.	.
=103	=103	=103	=103	=103	=103	=103	=103
0E-	in	1G	-cel-	0.r	.	1g	-sis.
.	.	1B-	.	.	.	1r	.
1E-i	ex-	[1c	.	.	.	1r	.
=104	=104	=104	=104	=104	=104	=104	=104
0E-i	-cel-	2c\]	.	0.r	.	0.r	.
.	.	2B-\	.	.	.	.	.
.	.	2G/	.	.	.	.	.
.	.	2A/	.	.	.	.	.
2D\	.	[1B-	.	.	.	.	.
2C/	.	.	.	.	.	.	.
=105	=105	=105	=105	=105	=105	=105	=105
1.BB-	.	2B-\]	.	0.r	.	0.r	.
.	.	2c\	.	.	.	.	.
.	.	1.d	.	.	.	.	.
2C/	.	.	.	.	.	.	.
1D	.	.	.	.	.	.	.
.	.	2c\	.	.	.	.	.
=106	=106	=106	=106	=106	=106	=106	=106
1E-i	.	0B-	.	0.r	.	0.r	.
0C	.	.	.	.	.	.	.
.	.	1A	.	.	.	.	.
=107	=107	=107	=107	=107	=107	=107	=107
0.BB-	-sis.	0B-	-sis.	[0.d	in	0b-	in
.	.	1F	in	.	.	1b-	ex-
=108	=108	=108	=108	=108	=108	=108	=108
0.r	.	0G	.	1d]	.	0b-	-cel-
.	.	.	.	1B-	ex-	.	.
.	.	1E	ex-	1c	.	2a/	.
.	.	.	.	.	.	2g/	.
=109	=109	=109	=109	=109	=109	=109	=109
0BB-	in	1.D	-cel-	0d	-cel-	1.f	.
.	.	2E/	.	.	.	2g/	.
1AA	ex-	1F	.	1c	.	1a	.
=110	=110	=110	=110	=110	=110	=110	=110
1GG	-cel-	1.G	.	1d	.	1b-	-sis.
1.C	.	.	.	1e	.	0g	ex-
.	.	2F/	.	.	.	.	.
.	.	2E/	.	[1c	.	.	.
2BB-/	.	2D/	.	.	.	.	.
=111	=111	=111	=111	=111	=111	=111	=111
2AA/	.	1C	.	2c\]	.	1.cc	-cel-
2GG/	.	.	.	2B-\	.	.	.
1FF	-sis.	1.c	.	2A/	.	.	.
.	.	.	.	2G/	.	2b-\	.
1r	.	.	.	2F/	.	2a/	.
.	.	4B-\	.	2E/	.	2g/	.
.	.	4A/	.	.	.	.	.
=112	=112	=112	=112	=112	=112	=112	=112
1GG	in	2G/	.	1D	-sis.	2b-\	.
.	.	2F/	.	.	.	2a/	.
1C	.	2E/	.	1r	.	1.g	.
.	.	2D/	.	.	.	.	.
1E	ex-	1C	.	1c	ex-	.	.
.	.	.	.	.	.	2f/	.
=113	=113	=113	=113	=113	=113	=113	=113
1D	-cel-	1F	.	1B-	-cel-	0f	.
0C	.	0G	.	[0cl	-sis.	.	.
.	.	.	.	.	.	1e	.
=114	=114	=114	=114	=114	=114	=114	=114
0.FFl	-sis.	0.Fl	-sis.	0.c]	.	0.fl	-sis.
!!LO:LB:i:g=z
!!LO:TX:rj:i:Y=40:t=fine
=115||	=115||	=115||	=115||	=115||	=115||	=115||	=115||
*>D	*>D	*>D	*>D	*>D	*>D	*>D	*>D
*clefF4	*	*clefGv2	*	*clefGv2	*	*clefG2	*
*k[b-]	*	*k[b-]	*	*k[b-]	*	*k[b-]	*
*M2/1	*	*M2/1	*	*M2/1	*	*M2/1	*
*met(C|)	*	*met(C|)	*	*met(C|)	*	*met(C|)	*
!!section: Benedictus
!!!OMD: Benedictus
0r	.	0r	.	1.F	Be-	0r	.
.	.	.	.	2G/	-ne-	.	.
=116	=116	=116	=116	=116	=116	=116	=116
0FF	Be-	0r	.	1.A	-dic-	0r	.
.	.	.	.	4G/	.	.	.
.	.	.	.	4F/	.	.	.
=117	=117	=117	=117	=117	=117	=117	=117
1GG	-ne-	0r	.	2B-\	.	0r	.
.	.	.	.	4A/	.	.	.
.	.	.	.	4G/	.	.	.
[1AA	-dic-	.	.	2F/	.	.	.
.	.	.	.	2E/	.	.	.
=118	=118	=118	=118	=118	=118	=118	=118
1AA]	.	0r	.	1C	.	0r	.
1AA	-tus,	.	.	[1c	.	.	.
=119	=119	=119	=119	=119	=119	=119	=119
1.C	be-	0r	.	2c\]	.	0r	.
.	.	.	.	4B-\	.	.	.
.	.	.	.	4A/	.	.	.
.	.	.	.	1G	-tus,	.	.
2BB-/	.	.	.	.	.	.	.
=120	=120	=120	=120	=120	=120	=120	=120
2AA/	.	0r	.	2r	.	0r	.
2GG/	.	.	.	1D	be-	.	.
1BB-	-ne-	.	.	.	.	.	.
.	.	.	.	[2G/	.	.	.
=121	=121	=121	=121	=121	=121	=121	=121
0AA	-dic-	0r	.	2G/]	.	0r	.
.	.	.	.	4F/	.	.	.
.	.	.	.	4E/	.	.	.
.	.	.	.	2G/	.	.	.
.	.	.	.	2F#i/	-ne-	.	.
=122	=122	=122	=122	=122	=122	=122	=122
0GG	-tus	0r	.	1G	-dic-	0r	.
.	.	.	.	[1B-	.	.	.
=123	=123	=123	=123	=123	=123	=123	=123
1GG	be-	0r	.	2B-\]	.	0r	.
.	.	.	.	4A/	.	.	.
.	.	.	.	4G/	.	.	.
1BB-	-ne-	.	.	2F/	.	.	.
.	.	.	.	[2G/	.	.	.
=124	=124	=124	=124	=124	=124	=124	=124
2C/	-dic-	0r	.	4G/]	.	0r	.
.	.	.	.	4F/	.	.	.
2BB-/	.	.	.	2D/	.	.	.
2.AA/	.	.	.	2C/	.	.	.
.	.	.	.	[2F/	.	.	.
4GG/	.	.	.	.	.	.	.
=125	=125	=125	=125	=125	=125	=125	=125
2.FF/	.	0r	.	4F/]	.	0r	.
.	.	.	.	4G/	.	.	.
.	.	.	.	4A/	.	.	.
4GG/	.	.	.	4B-\	.	.	.
2AA/	.	.	.	2c\	.	.	.
[2BB-/	.	.	.	2F/	.	.	.
=126	=126	=126	=126	=126	=126	=126	=126
4BB-/]	.	0r	.	4G/	.	0r	.
4AA/	.	.	.	4F/	.	.	.
4GG/	.	.	.	4E/	.	.	.
4FF/	.	.	.	4D/	.	.	.
1GG	.	.	.	2.E/	.	.	.
.	.	.	.	4D/	.	.	.
=127	=127	=127	=127	=127	=127	=127	=127
0FF	-tus	0c	Be-	0F	-tus,	0a	Be-
=128	=128	=128	=128	=128	=128	=128	=128
0r	.	1d	.	0r	.	1a	-ne-
.	.	1c	-ne-	.	.	1a	-dic-
=129	=129	=129	=129	=129	=129	=129	=129
0r	.	0B-	-dic-	0r	.	2.d/	.
.	.	.	.	.	.	4e/	.
.	.	.	.	.	.	4f/	.
.	.	.	.	.	.	4g/	.
.	.	.	.	.	.	[2f/	.
=130	=130	=130	=130	=130	=130	=130	=130
0r	.	0A	-tus,	0r	.	2f/]	.
.	.	.	.	.	.	4e/	.
.	.	.	.	.	.	4d/	.
.	.	.	.	.	.	1c	-tus,
=131	=131	=131	=131	=131	=131	=131	=131
0r	.	1B-	be-	0r	.	1r	.
.	.	1A	-ne-	.	.	1c	be-
=132	=132	=132	=132	=132	=132	=132	=132
0r	.	1.G	-dic-	0r	.	1d	.
.	.	.	.	.	.	1e	-ne-
.	.	4F/	.	.	.	.	.
.	.	4E/	.	.	.	.	.
=133	=133	=133	=133	=133	=133	=133	=133
0r	.	1D	.	0r	.	1f	-dic-
.	.	2C/	.	.	.	1cc	.
.	.	[2F/	.	.	.	.	.
=134	=134	=134	=134	=134	=134	=134	=134
0r	.	4F/]	.	0r	.	2dd\	.
.	.	4G/	.	.	.	.	.
.	.	1A	.	.	.	2cc\	.
.	.	.	.	.	.	1b-	.
.	.	2G/	.	.	.	.	.
=135	=135	=135	=135	=135	=135	=135	=135
0r	.	2A/	-tus	0r	.	1a	-tus,
.	.	1c	qui	.	.	.	.
.	.	.	.	.	.	2r	.
.	.	2d\	.	.	.	[2a/	qui
=136	=136	=136	=136	=136	=136	=136	=136
0r	.	2c\	ve-	0r	.	2a/]	.
.	.	1B-	.	.	.	2g/	.
.	.	.	.	.	.	1f	.
.	.	[2A/	.	.	.	.	.
=137	=137	=137	=137	=137	=137	=137	=137
0r	.	2A/]	.	0r	.	1e	ve-
.	.	1c	.	.	.	.	.
.	.	.	.	.	.	1g	.
.	.	2B-\	.	.	.	.	.
=138	=138	=138	=138	=138	=138	=138	=138
0r	.	2A/	.	0r	.	2f/	.
.	.	1G	.	.	.	2e/	.
.	.	.	.	.	.	1d	-nit,
.	.	[2F/	.	.	.	.	.
=139	=139	=139	=139	=139	=139	=139	=139
0r	.	2F/]	.	0r	.	4c/	ve-
.	.	.	.	.	.	4d/	.
.	.	2G/	.	.	.	4e/	.
.	.	.	.	.	.	4f/	.
.	.	2B-\	.	.	.	2g/	.
.	.	[2A/	.	.	.	[2f/	.
=140	=140	=140	=140	=140	=140	=140	=140
0r	.	2A/]	.	0r	.	2f/]	.
.	.	1G	.	.	.	2.b-\	.
.	.	.	.	.	.	4a/	.
.	.	[2B-\	.	.	.	4g/	.
.	.	.	.	.	.	4f/	.
=141	=141	=141	=141	=141	=141	=141	=141
0r	.	4B-\]	.	0r	.	2g/	.
.	.	4A/	.	.	.	.	.
.	.	4G/	.	.	.	1f	.
.	.	4F/	.	.	.	.	.
.	.	1G	.	.	.	.	.
.	.	.	.	.	.	2e/	.
=142	=142	=142	=142	=142	=142	=142	=142
0r	.	0F	-nit,	2c\	in	1f	-nit,
.	.	.	.	2c\	no-	.	.
.	.	.	.	2d\	.	1r	.
.	.	.	.	[2c\	.	.	.
=143	=143	=143	=143	=143	=143	=143	=143
0r	.	0r	.	2c\]	.	2cc\	in
.	.	.	.	4B-\	-mi-	2cc\	no-
.	.	.	.	4A/	.	.	.
.	.	.	.	2B-\	-ne,	2dd\	.
.	.	.	.	2A/	.	[2cc\	.
=144	=144	=144	=144	=144	=144	=144	=144
2F\	in	0r	.	0r	.	2cc\]	.
2F\	no-	.	.	.	.	4b-\	-mi-
.	.	.	.	.	.	4a/	.
2G\	.	.	.	.	.	2b-\	-ne,
[2F\	.	.	.	.	.	2a/	.
=145	=145	=145	=145	=145	=145	=145	=145
2F\]	.	2r	.	0r	.	0r	.
4E\	.	1c	in	.	.	.	.
4D\	.	.	.	.	.	.	.
2E\	.	.	.	.	.	.	.
2D\	-mi-	2d\	no-	.	.	.	.
=146	=146	=146	=146	=146	=146	=146	=146
1F	-ne,	2c\	.	0r	.	1r	.
.	.	4B-\	.	.	.	.	.
.	.	4A/	.	.	.	.	.
1r	.	2B-\	.	.	.	2g/	in
.	.	2A/	-mi-	.	.	[2a/	no-
=147	=147	=147	=147	=147	=147	=147	=147
1r	.	1c	-ne,	1r	.	2a/]	.
.	.	.	.	.	.	1g	.
1C	in	1r	.	1c	in	.	.
.	.	.	.	.	.	4f/	-mi-
.	.	.	.	.	.	4e/	.
=148	=148	=148	=148	=148	=148	=148	=148
2BB-/	no-	0r	.	2d\	no-	2f/	-ne,
2C/	.	.	.	1c	.	2e/	.
2AA/	.	.	.	.	.	1r	.
2A\	.	.	.	4B-\	-mi-	.	.
.	.	.	.	4A/	.	.	.
=149	=149	=149	=149	=149	=149	=149	=149
2G\	.	1r	.	2B-\	-ne,	0r	.
1F	.	.	.	2A/	.	.	.
.	.	1A	in	2r	.	.	.
4E\	-mi-	.	.	[2c\	in	.	.
4D\	.	.	.	.	.	.	.
=150	=150	=150	=150	=150	=150	=150	=150
2E\	-ne,	2G/	no-	2c\]	.	1r	.
2D\	.	1A	.	2d\	no-	.	.
1r	.	.	.	2c\	.	2r	.
.	.	4G/	-mi-	4B-\	-mi-	2cc\	in
.	.	4F/	.	4A/	.	.	.
=151	=151	=151	=151	=151	=151	=151	=151
1r	.	2G/	-ne,	1d	-ne	2b-\	no-
.	.	2F/	.	.	.	1a	.
1D	in	1r	.	1r	.	.	.
.	.	.	.	.	.	4g/	-mi-
.	.	.	.	.	.	4f/	.
=152	=152	=152	=152	=152	=152	=152	=152
2E\	no-	2r	.	0r	.	2g/	-ne,
1D	.	2A/	in	.	.	2f/	.
.	.	2B-\	no-	.	.	1r	.
2C/	.	[2A/	.	.	.	.	.
=153	=153	=153	=153	=153	=153	=153	=153
1BB-	-mi-	2A/]	.	1r	.	1r	.
.	.	2G/	-mi-	.	.	.	.
1AA	-ne,	1A	-ne,	2r	.	1cc	in
.	.	.	.	2A/	Do-	.	.
=154	=154	=154	=154	=154	=154	=154	=154
0r	.	0r	.	2B-\	.	2dd\	no-
.	.	.	.	2.A/	.	2cc\	.
.	.	.	.	.	.	1b-	-mi-
.	.	.	.	4G/	.	.	.
.	.	.	.	4G/	.	.	.
.	.	.	.	4F/	.	.	.
=155	=155	=155	=155	=155	=155	=155	=155
0r	.	0r	.	4c\	.	2a/	-ne
.	.	.	.	4d\	.	.	.
.	.	.	.	4e\	.	2cc\	Do-
.	.	.	.	4f\	.	.	.
.	.	.	.	2g\	.	2b-\	.
.	.	.	.	[2f\	.	2a/	.
=156	=156	=156	=156	=156	=156	=156	=156
1C	Do-	0r	.	2f\]	.	1g	-mi-
.	.	.	.	2e\	-mi-	.	.
2D\	.	.	.	1f	-ni.	1f	-ni.
[2F\	.	.	.	.	.	.	.
=157	=157	=157	=157	=157	=157	=157	=157
2F\]	.	1c	Do-	0r	.	0r	.
2E\	.	.	.	.	.	.	.
2D\	.	2B-\	.	.	.	.	.
[2C/	.	[2A/	.	.	.	.	.
=158	=158	=158	=158	=158	=158	=158	=158
2C/]	.	2A/]	.	0r	.	0r	.
4BB-/	.	4G/	.	.	.	.	.
4AA/	.	4F/	.	.	.	.	.
1GG	-mi-	2F/	.	.	.	.	.
.	.	2E/	-mi-	.	.	.	.
=159	=159	=159	=159	=159	=159	=159	=159
1FF	-ni.	2F/	-ni.	0r	.	1cc	in
.	.	2A/	in	.	.	.	.
2r	.	2G/	.	.	.	2b-\	no-
2F\	in	[2c\	no-	.	.	2a/	-mi-
=160	=160	=160	=160	=160	=160	=160	=160
1E-	.	4c\]	.	1c	in	1g	-ne
.	.	4B-\	.	.	.	.	.
.	.	4A/	.	.	.	.	.
.	.	4G/	.	.	.	.	.
2D\	no-	2A/	.	2d\	no-	2f/	Do-
2C/	-mi-	[2c\	.	[2G/	.	2e/	.
=161	=161	=161	=161	=161	=161	=161	=161
1GG	-ne	2c\]	.	2G/]	.	1d	-mi-
.	.	2B-\	.	2G/	-mi-	.	.
2C/	Do-	2c\	.	2A/	-ne,	2c/	-ni.
2BB-/	.	2d\	.	[2B-\	Do-	2f/	Do-
=162	=162	=162	=162	=162	=162	=162	=162
2GG/	.	1B-	-mi-	4B-\]	.	2g/	.
.	.	.	.	4c\	.	.	.
2G\	.	.	.	4d\	.	1b-	.
.	.	.	.	4e\	.	.	.
1F	.	1c	-ne	1f	.	.	.
.	.	.	.	.	.	[2a/	.
=163	=163	=163	=163	=163	=163	=163	=163
2D\	.	2r	.	2f\	-mi-	2a/]	.
2.E-\	.	2B-\	Do-	1e-	-ni.	1g	.
.	.	2c\	.	.	.	.	.
4F\	.	.	.	.	.	.	.
2G\	.	2B-\	.	2d\	Do-	2b-\	.
=164	=164	=164	=164	=164	=164	=164	=164
2F\	.	2c\	.	2f\	.	2a/	.
2G\	.	2B-\	.	2d\	.	2.g/	.
2C/	.	2c\	.	2c\	.	.	.
.	.	.	.	.	.	4f/	.
2D\	.	2F/	.	2B-\	.	2f/	.
=165	=165	=165	=165	=165	=165	=165	=165
2.C/	.	2E/	.	2c\	.	4g/	.
.	.	.	.	.	.	4f/	.
.	.	2C/	.	2G/	.	4e/	.
4BB-/	.	.	.	.	.	4d/	.
4AA/	.	2.F/	.	2A/	.	2c/	.
4GG/	.	.	.	.	.	.	.
2FF/	.	.	.	[2c\	.	2f/	.
.	.	4G/	.	.	.	.	.
=166	=166	=166	=166	=166	=166	=166	=166
2C/	.	2A/	.	2c\]	.	2e/	.
2BB-/	.	2B-\	.	2d\	-mi-	1f	.
1C	-mi-	1G	-mi-	[1cl	-ni.	.	.
.	.	.	.	.	.	2e/	-mi-
=167	=167	=167	=167	=167	=167	=167	=167
0FFl	-ni.	0Fl	-ni.	0c]	.	0fl	-ni.
!!LO:TX:i:Y=40:rj:t=Osanna ut supra
=||	=||	=||	=||	=||	=||	=||	=||
*-	*-	*-	*-	*-	*-	*-	*-
!!!RDF**kern: l=long note in original notation
!!!RDF**kern: i=editorial accidental
!!!ENC:	Jesse Rodin 8/10/2013
!!!END:	2013/08/10/
!!!EED:	Jesse Rodin
!!!EEV:	2013/08/11/
!!!ONB:	Translated from MusicXML and edited on 2013/08/11/ by Craig Sapp
!!muse2ps: T^@{OPR}^u^@{ONM}{. }@{OTL}^C^@{COM}^i2I150v85,85,85,130Q4c121
!!xmuse2ps: T^@{OPR}^u^@{ONM}{. }@{OTL}^C^@{COM}^i2I150v85,85,85,130Q16c97
